X: 64
T:Mazurka
M:3/4
L:1/8
Q:1/4=130
O:France
A:Massif Central
K:C
GAB|c2 cede|c2 cGAB|cBcede|c2 cGAB|c2 cede|c2 cGAB|cBcede|c4eg|
f2 edeg|d3 efd|ecBcdc|B2G2 eg|f2 edeg|d3efd|ecBcdB|c3||
W:
W: From "Falaleiro" http://home.t-online.de/home/pheld/homepage.htm
